svgs/comdirect_phototan.svg

<?xml version="1.0" encoding="UTF-8" standalone="no"?>
<!-- Created with Inkscape (http://www.inkscape.org/) -->

<svg
   version="1.1"
   id="svg2"
   width="192"
   height="192"
   viewBox="0 0 192 192"
   sodipodi:docname="comdirect_phototan.svg"
   inkscape:export-filename="comdirect_phototan.svg"
   inkscape:export-xdpi="96"
   inkscape:export-ydpi="96"
   inkscape:version="1.2.1 (9c6d41e410, 2022-07-14)"
   xmlns:inkscape="http://www.inkscape.org/namespaces/inkscape"
   xmlns:sodipodi="http://sodipodi.sourceforge.net/DTD/sodipodi-0.dtd"
   xmlns="http://www.w3.org/2000/svg"
   xmlns:svg="http://www.w3.org/2000/svg">
  <defs
     id="defs6" />
  <sodipodi:namedview
     id="namedview4"
     pagecolor="#ffffff"
     bordercolor="#000000"
     borderopacity="0.25"
     inkscape:showpageshadow="2"
     inkscape:pageopacity="0.0"
     inkscape:pagecheckerboard="0"
     inkscape:deskcolor="#d1d1d1"
     showgrid="false"
     inkscape:zoom="3.4766084"
     inkscape:cx="127.85449"
     inkscape:cy="96.358277"
     inkscape:window-width="1920"
     inkscape:window-height="1099"
     inkscape:window-x="0"
     inkscape:window-y="0"
     inkscape:window-maximized="1"
     inkscape:current-layer="g8" />
  <g
     inkscape:groupmode="layer"
     inkscape:label="Image"
     id="g8">
    <path
       id="rect291-6-7-3-6-6"
       style="fill-opacity:0;stroke:#000000;stroke-width:8;stroke-linecap:round;stroke-linejoin:round;stroke-miterlimit:6;paint-order:stroke fill markers;stroke-dasharray:none"
       d="m 88.107193,155.6342 h 16.223587 v 16.22359 H 88.107193 Z" />
    <path
       id="rect291-6-7-0"
       style="fill-opacity:0;stroke:#000000;stroke-width:8;stroke-linecap:round;stroke-linejoin:round;stroke-miterlimit:6;paint-order:stroke fill markers;stroke-dasharray:none"
       d="m 155.21481,155.6342 h 16.22359 v 16.22359 h -16.22359 z" />
    <path
       id="rect291-3-5-6"
       style="fill-opacity:0;stroke:#000000;stroke-width:8;stroke-linecap:round;stroke-linejoin:round;stroke-miterlimit:6;paint-order:stroke fill markers;stroke-dasharray:none"
       d="m 121.6852,155.6342 h 16.22359 v 16.22359 H 121.6852 Z" />
    <path
       id="rect291-6-7-3-9"
       style="fill-opacity:0;stroke:#000000;stroke-width:8;stroke-linecap:round;stroke-linejoin:round;stroke-miterlimit:6;paint-order:stroke fill markers;stroke-dasharray:none"
       d="m 155.21481,121.96919 h 16.22359 v 16.22359 h -16.22359 z" />
    <path
       id="rect291-3-5-5-3"
       style="fill-opacity:0;stroke:#000000;stroke-width:8;stroke-linecap:round;stroke-linejoin:round;stroke-miterlimit:6;paint-order:stroke fill markers;stroke-dasharray:none"
       d="m 121.6852,121.96919 h 16.22359 v 16.22359 H 121.6852 Z" />
    <path
       id="rect291-6-7-3-6-2-1-0"
       style="fill-opacity:0;stroke:#000000;stroke-width:8;stroke-linecap:round;stroke-linejoin:round;stroke-miterlimit:6;paint-order:stroke fill markers;stroke-dasharray:none"
       d="M 20.898195,155.63452 H 37.12178 v 16.22359 H 20.898195 Z" />
    <path
       id="rect291-6-7-3-6-2-7"
       style="fill-opacity:0;stroke:#000000;stroke-width:8;stroke-linecap:round;stroke-linejoin:round;stroke-miterlimit:6;paint-order:stroke fill markers;stroke-dasharray:none"
       d="M 20.898195,87.955193 H 37.12178 V 104.17878 H 20.898195 Z" />
    <path
       id="rect291-6-7-3-6-2-1"
       style="fill-opacity:0;stroke:#000000;stroke-width:8;stroke-linecap:round;stroke-linejoin:round;stroke-miterlimit:6;paint-order:stroke fill markers;stroke-dasharray:none"
       d="M 20.898195,121.96919 H 37.12178 v 16.22359 H 20.898195 Z" />
    <path
       id="rect291-3-5-9-2"
       style="fill-opacity:0;stroke:#000000;stroke-width:8;stroke-linecap:round;stroke-linejoin:round;stroke-miterlimit:6;paint-order:stroke fill markers;stroke-dasharray:none"
       d="m 54.476204,121.96919 h 16.223585 v 16.22359 H 54.476204 Z" />
    <path
       id="rect291-6-7-3-6-2"
       style="fill-opacity:0;stroke:#000000;stroke-width:8;stroke-linecap:round;stroke-linejoin:round;stroke-miterlimit:6;paint-order:stroke fill markers;stroke-dasharray:none"
       d="M 20.898195,54.090195 H 37.12178 V 70.31378 H 20.898195 Z" />
    <path
       id="rect291-3-5-9"
       style="fill-opacity:0;stroke:#000000;stroke-width:8;stroke-linecap:round;stroke-linejoin:round;stroke-miterlimit:6;paint-order:stroke fill markers;stroke-dasharray:none"
       d="M 54.476204,54.090195 H 70.699789 V 70.31378 H 54.476204 Z" />
    <path
       id="rect291-6-7-3-6"
       style="fill-opacity:0;stroke:#000000;stroke-width:8;stroke-linecap:round;stroke-linejoin:round;stroke-miterlimit:6;paint-order:stroke fill markers;stroke-dasharray:none"
       d="M 88.107193,54.090195 H 104.33078 V 70.31378 H 88.107193 Z" />
    <path
       id="rect291-6-7-3"
       style="fill-opacity:0;stroke:#000000;stroke-width:8;stroke-linecap:round;stroke-linejoin:round;stroke-miterlimit:6;paint-order:stroke fill markers;stroke-dasharray:none"
       d="m 121.6368,87.955193 h 16.22359 V 104.17878 H 121.6368 Z" />
    <path
       id="rect291-3-5-5"
       style="fill-opacity:0;stroke:#000000;stroke-width:8;stroke-linecap:round;stroke-linejoin:round;stroke-miterlimit:6;paint-order:stroke fill markers;stroke-dasharray:none"
       d="M 88.107193,87.955193 H 104.33078 V 104.17878 H 88.107193 Z" />
    <path
       id="rect291-6-7"
       style="fill-opacity:0;stroke:#000000;stroke-width:8;stroke-linecap:round;stroke-linejoin:round;stroke-miterlimit:6;paint-order:stroke fill markers;stroke-dasharray:none"
       d="M 155.21481,54.090195 H 171.4384 V 70.31378 h -16.22359 z" />
    <path
       id="rect291-3-5"
       style="fill-opacity:0;stroke:#000000;stroke-width:8;stroke-linecap:round;stroke-linejoin:round;stroke-miterlimit:6;paint-order:stroke fill markers;stroke-dasharray:none"
       d="m 121.6852,54.090195 h 16.22359 V 70.31378 H 121.6852 Z" />
    <path
       id="rect291-6"
       style="fill-opacity:0;stroke:#000000;stroke-width:8;stroke-linecap:round;stroke-linejoin:round;stroke-miterlimit:6;paint-order:stroke fill markers;stroke-dasharray:none"
       d="m 155.56183,20.290195 h 16.22358 v 16.223586 h -16.22358 z" />
    <path
       id="rect291"
       style="fill-opacity:0;stroke:#000000;stroke-width:8;stroke-linecap:round;stroke-linejoin:round;stroke-miterlimit:6;paint-order:stroke fill markers;stroke-dasharray:none"
       d="M 54.288628,20.290195 H 70.512213 V 36.513781 H 54.288628 Z" />
    <path
       id="rect291-3"
       style="fill-opacity:0;stroke:#000000;stroke-width:8;stroke-linecap:round;stroke-linejoin:round;stroke-miterlimit:6;paint-order:stroke fill markers;stroke-dasharray:none"
       d="m 122.0322,20.290195 h 16.22359 V 36.513781 H 122.0322 Z" />
  </g>
</svg>

<svg width="192" height="192" viewBox="0 0 192 192" xmlns="http://www.w3.org/2000/svg"><g fill="none"><path style="fill-opacity:0;stroke:#000;stroke-width:8;stroke-linecap:round;stroke-linejoin:round;stroke-miterlimit:6;paint-order:stroke fill markers;stroke-dasharray:none" d="M88.107 155.634h16.224v16.224H88.107ZM155.215 155.634h16.223v16.224h-16.223zM121.685 155.634h16.224v16.224h-16.224ZM155.215 121.97h16.223v16.223h-16.223zM121.685 121.97h16.224v16.223h-16.224ZM20.898 155.635h16.224v16.223H20.898ZM20.898 87.955h16.224v16.224H20.898ZM20.898 121.97h16.224v16.223H20.898ZM54.476 121.97H70.7v16.223H54.476ZM20.898 54.09h16.224v16.224H20.898ZM54.476 54.09H70.7v16.224H54.476ZM88.107 54.09h16.224v16.224H88.107ZM121.637 87.955h16.223v16.224h-16.223ZM88.107 87.955h16.224v16.224H88.107ZM155.215 54.09h16.223v16.224h-16.223zM121.685 54.09h16.224v16.224h-16.224ZM155.562 20.29h16.223v16.224h-16.223zM54.289 20.29h16.223v16.224H54.29ZM122.032 20.29h16.224v16.224h-16.224Z"/></g></svg>
